assets/features/home/AdsPower.svg

<svg width="319" height="48" viewBox="0 0 319 48" fill="none" xmlns="http://www.w3.org/2000/svg">
<g clip-path="url(#clip0_33_123)">
<path d="M256.33 36.247C258.026 30.8118 259.757 25.4117 261.312 19.9412C261.806 18.2117 262.654 17.5059 264.42 17.7176C265.657 17.8588 266.893 17.7882 268.13 17.7176C269.401 17.7176 269.649 18.1764 269.225 19.3412C267.706 23.4706 266.222 27.6 264.703 31.7647C263.29 35.6117 261.841 39.4588 260.499 43.3412C260.11 44.5059 259.475 44.9294 258.309 44.8588C256.79 44.7882 255.235 44.7882 253.716 44.8588C252.445 44.9294 251.809 44.4 251.455 43.2C249.936 38.4353 248.382 33.7059 246.828 28.9765C246.722 28.6588 246.58 28.3412 246.368 27.8823C245.697 28.3412 245.662 29.0117 245.45 29.5764C243.966 34.0941 242.447 38.6117 241.069 43.1647C240.681 44.4706 240.01 44.9647 238.667 44.8941C237.607 44.8235 236.548 44.8941 235.488 44.8941C233.557 44.8941 232.261 44.0118 231.602 42.247C228.846 34.7647 226.091 27.247 223.335 19.7647C222.629 17.7882 222.629 17.7529 224.642 17.7882C226.585 17.8235 228.811 17.0823 230.365 18.1059C231.92 19.1647 231.814 21.5647 232.414 23.4C233.827 27.6706 235.134 32.0118 236.512 36.4235C237.254 35.9294 237.219 35.2235 237.395 34.6588C238.914 29.6823 240.469 24.6706 241.917 19.6588C242.341 18.2118 243.048 17.7529 244.531 17.7529C250.184 17.7529 250.148 17.7529 251.809 23.0823C253.186 27.4941 254.564 31.9059 255.907 36.3176H256.33V36.247Z" fill="#D9D9D9"/>
<path d="M145.935 45.247C141.413 45.1411 137.986 44.3647 134.807 42.4588C133.747 41.8235 133.394 41.1176 134.065 40.0235C134.736 38.9294 134.771 37.2705 135.902 36.7058C137.068 36.1411 138.021 37.6235 139.152 38.047C141.201 38.8235 143.25 39.4941 145.475 39.5294C146.253 39.5294 146.994 39.4235 147.666 39C149.008 38.1529 149.079 36.9882 147.842 36C146.959 35.2941 145.899 34.9411 144.804 34.5882C142.826 33.9882 140.848 33.4588 138.975 32.5411C136.22 31.1647 134.63 28.9764 134.665 25.8353C134.665 22.7647 136.043 20.4 138.763 18.9529C143.002 16.6941 147.454 16.9411 151.764 18.4588C157.38 20.4353 156.003 20.0823 154.13 24.2823C153.601 25.4823 153.035 25.6941 151.834 25.0941C149.573 23.9294 147.171 23.1529 144.557 23.2941C143.426 23.3647 142.367 23.6117 142.119 24.847C141.837 26.1882 142.861 26.7176 143.886 27.1058C145.369 27.6353 146.888 28.0941 148.407 28.6235C149.467 28.9764 150.527 29.3294 151.516 29.8235C155.084 31.5529 156.497 33.9176 156.144 37.7294C155.826 41.2588 153.565 43.3058 150.421 44.4C148.69 45 146.888 45.3529 145.899 45.247H145.935Z" fill="#D9D9D9"/>
<path d="M310.592 21.7059C312.5 19.4118 314.69 17.8588 317.622 17.6118C318.611 17.5412 319.071 17.7882 319.035 18.7765C319.035 19.2353 319.035 19.7294 319.035 20.1882C319 21.5294 319.318 23.0471 318.788 24.1765C318.223 25.3765 316.456 24.8118 315.255 25.1647C312.182 26.0118 310.204 28.3765 310.168 31.5529C310.133 35.2941 310.062 39.0706 310.168 42.8118C310.204 44.4706 309.603 45.0353 308.013 44.8941C306.918 44.7882 305.788 44.8941 304.657 44.8941C302.22 44.8941 302.114 44.7882 302.114 42.2824C302.114 37.3059 302.114 32.2941 302.114 27.3176C302.114 24.8471 302.114 22.3765 302.114 19.9059C302.114 18.3882 302.644 17.5412 304.304 17.7529C304.657 17.7882 305.011 17.7529 305.364 17.7529C306.706 17.7529 308.19 17.4706 309.391 17.9294C311.016 18.5294 309.603 20.4 310.557 21.7412L310.592 21.7059Z" fill="#D9D9D9"/>
<path d="M128.625 36.2471C128.625 27.3177 128.625 18.3882 128.625 9.49413C128.625 7.97648 128.165 7.34119 126.611 7.48237C125.374 7.58825 124.138 7.48237 122.902 7.48237C120.57 7.48237 120.57 7.48236 120.57 9.84707C120.57 13.5177 120.57 17.1882 120.57 20.8588C119.97 21 119.758 20.5765 119.475 20.3294C115.306 15.8824 105.98 16.7647 102.2 21.9882C99.1268 26.2588 98.5969 30.953 99.9039 35.8941C102.306 44.8235 112.233 48.1412 119.44 42.5294C120.287 41.8588 120.57 42.0353 120.535 43.0235C120.464 44.6471 121.383 45 122.796 44.9294C124.138 44.8588 125.516 44.8588 126.858 44.9294C128.165 45 128.66 44.4706 128.625 43.1647C128.554 40.8706 128.625 38.5765 128.625 36.2824V36.2471ZM112.233 38.8588C108.17 38.8235 105.627 35.9294 105.662 31.3765C105.662 26.9647 108.418 24.0353 112.445 24.0353C116.331 24.0353 119.157 27.2118 119.122 31.5177C119.086 35.8235 116.225 38.8588 112.268 38.8235L112.233 38.8588Z" fill="#D9D9D9"/>
<path d="M98.3848 42.2824C94.5342 33.3177 90.719 24.353 86.833 15.4235C86.0205 13.553 85.7379 11.0471 84.1835 9.98824C82.5232 8.82354 80.0503 9.77649 77.966 9.60002C76.5883 9.49413 75.8817 9.98825 75.3165 11.2941C72.2784 18.4941 69.1343 25.6235 65.9903 32.7882C64.4712 36.2824 62.9168 39.7765 61.4331 43.3059C61.1858 43.8706 60.5146 44.7882 61.8217 44.8235C64.1533 44.8941 66.6968 45.4941 68.7811 44.5412C70.2295 43.9059 70.2295 41.5765 70.9713 40.0941C71.0067 39.9882 71.0773 39.8824 71.0773 39.7765C71.3953 38.4706 72.2784 38.1177 73.5855 38.1177C77.3655 38.1882 81.1101 38.1177 84.8901 38.1177C88.4934 38.1177 87.8928 37.8 89.1999 40.9765C91.1429 45.5647 89.9418 44.753 94.9228 44.8588C95.5234 44.8588 96.0886 44.8588 96.6892 44.8588C98.5261 44.8588 99.0678 44 98.3142 42.2824H98.3848ZM83.9716 31.4824C81.2867 31.4824 78.5666 31.4824 75.8817 31.4824C74.9986 31.4824 74.6806 31.0941 75.0339 30.2824C76.6236 26.4353 78.178 22.6235 79.7677 18.7765C79.9443 18.7765 80.1209 18.7765 80.2623 18.7765C81.8166 22.6235 83.3357 26.4706 84.8901 30.3177C85.2433 31.2 84.7841 31.5177 83.9716 31.5177V31.4824Z" fill="#D9D9D9"/>
<path d="M180.025 9.95297C174.585 9.21179 169.109 9.81179 163.633 9.60003C161.867 9.52944 161.443 10.2 161.478 11.8588C161.549 16.9765 161.478 22.0588 161.478 27.1765C161.478 32.4706 161.478 37.7294 161.478 43.0235C161.478 44.3294 161.832 45 163.28 44.9294C164.87 44.8588 166.459 44.8588 168.049 44.9294C169.18 44.9294 169.639 44.4706 169.603 43.3412C169.568 41.153 169.639 39 169.603 36.8118C169.568 35.4353 170.063 34.9412 171.44 34.9765C174.196 35.0471 176.951 34.9765 179.707 34.6941C186.419 33.953 190.764 29.2236 190.729 22.1294C190.693 15.7059 187.726 11.0824 179.99 9.98825L180.025 9.95297ZM183.028 23.0118C182.78 25.9059 180.696 27.8118 177.623 27.953C175.468 28.0236 173.277 27.953 171.122 27.9883C170.098 27.9883 169.603 27.5647 169.639 26.5059C169.639 25.0588 169.639 23.5765 169.639 22.1294C169.639 20.6824 169.639 19.2 169.639 17.753C169.639 16.9765 169.815 16.3059 170.769 16.3412C173.383 16.4118 176.068 16.0236 178.647 16.6236C181.791 17.3647 183.346 19.6588 183.028 23.0118Z" fill="#D9D9D9"/>
<path d="M222.099 28.2C221.039 21.6353 215.21 17.4706 207.721 17.5412C207.12 17.5765 206.555 17.647 205.955 17.6823C200.762 18.1059 196.628 20.3647 194.509 25.2353C192.354 30.247 192.601 35.2588 195.851 39.7765C198.819 43.8706 203.164 45.2118 208.074 45.2118C216.694 45.2118 223.865 39.3176 222.064 28.2H222.099ZM207.862 38.8588C203.906 38.8588 201.044 35.6823 201.115 31.3765C201.185 27.1412 204.012 24 207.827 24.0706C211.854 24.1059 214.504 27.1059 214.504 31.5529C214.504 35.8941 211.783 38.8941 207.862 38.8588Z" fill="#D9D9D9"/>
<path d="M284.274 17.5765C277.986 17.5412 273.146 20.2942 270.956 25.553C268.553 31.2706 269.896 37.8706 274.206 41.9294C278.445 45.8824 286.994 46.3765 292.576 43.0236C295.932 41.0118 295.967 40.7295 293.247 37.9412C293.211 37.9059 293.141 37.8706 293.141 37.8C292.222 36.6 291.339 36.2118 289.997 37.4118C288.76 38.5059 287.065 38.8942 285.44 39.1059C282.755 39.4236 279.787 37.9059 278.586 35.6471C277.844 34.2706 278.056 33.8471 279.611 33.8471C282.19 33.8118 284.768 33.8471 287.383 33.8471C290.032 33.8471 292.682 33.8471 295.331 33.8471C296.391 33.8471 297.133 33.5647 297.203 32.2942C297.592 24.353 293.671 17.6471 284.274 17.5765ZM287.983 29.0118C286.57 29.0118 285.157 29.0118 283.744 29.0118C282.154 29.0118 280.564 29.0118 278.975 29.0118C278.374 29.0118 277.774 29.0118 277.88 28.0589C278.162 25.9765 280.741 23.6471 283.073 23.4C286.146 23.0824 288.619 24.4942 289.431 27C289.961 28.6236 289.679 29.0118 287.983 29.0471V29.0118Z" fill="#D9D9D9"/>
<mask id="mask0_33_123" style="mask-type:luminance" maskUnits="userSpaceOnUse" x="0" y="0" width="50" height="50">
<path d="M5.6876 49.1647C2.57885 48.4941 0.706534 46.5882 0 43.4824C0 37.3412 0.0706577 31.1647 0.0706577 25.0235C0.0706577 18.5647 0.0353267 12.1412 0 5.68235C0.671207 2.57647 2.57885 0.705882 5.6876 0C11.7285 0 17.7693 0.0705925 23.8102 0.0705925C30.4869 0.0705925 37.199 0.0705925 43.8758 0.0705925C47.5497 1.2 49.3161 3.52941 49.3161 7.27059C49.3161 18.8118 49.3161 30.3529 49.3161 41.8941C49.3161 45.6353 47.5144 47.9647 43.8758 49.0941C31.1228 49.0941 18.4052 49.1294 5.65227 49.1647H5.6876Z" fill="#1E4DFE"/>
<path d="M38.6828 41.1176V28.2353L33.434 23.8954L28.438 27.8148V32.8235L38.6828 41.1176Z" fill="#A5B8FF"/>
<path d="M11.4812 7.76467V21.3391L15.9621 24.3158L24.5401 17.8143L11.4812 7.76467Z" fill="#D2DBFF"/>
<path fill-rule="evenodd" clip-rule="evenodd" d="M11.4812 34.4117V27.3529L15.9621 24.3158L20.233 27.6684L11.4812 34.4117ZM11.4812 34.7647V41.1176L24.4276 30.961L20.4902 27.8702L11.4812 34.7647Z" fill="#A5B8FF"/>
<path fill-rule="evenodd" clip-rule="evenodd" d="M20.233 27.6684L15.9621 24.3158L24.5401 17.8143L24.5521 17.8235V24.3367L20.233 27.6684ZM20.4902 27.8702L24.4276 30.961L24.5521 30.8634V24.7258L20.4902 27.8702Z" fill="#FDFDFF"/>
<path fill-rule="evenodd" clip-rule="evenodd" d="M28.438 21.3391V19.7647L29.4231 20.5792L28.438 21.3391ZM28.438 21.7176V27.8148L33.434 23.8954L29.6579 20.7733L28.438 21.7176Z" fill="#E5EBFF"/>
<path fill-rule="evenodd" clip-rule="evenodd" d="M38.6828 19.5882V13.5882L29.6579 20.7733L33.434 23.8954L38.6828 19.5882ZM29.4231 20.5792L28.438 19.7647V21.3391L24.5521 24.3367V17.8235L24.5401 17.8143L38.6828 6.88232V13.2353L29.4231 20.5792ZM24.5521 30.8634V24.7258L28.438 21.7176V27.8148L24.5521 30.8634Z" fill="#A5B8FF"/>
<path d="M11.4812 34.4117V34.7647L20.4902 27.8702L20.233 27.6684L11.4812 34.4117Z" fill="#C7D2FF"/>
<path d="M24.5521 24.3434V24.7258L28.438 21.7176V21.3391L24.5521 24.3367V24.3434Z" fill="#C7D2FF"/>
<path d="M38.6828 13.5882V13.2353L29.4231 20.5792L29.6579 20.7733L38.6828 13.5882Z" fill="#C7D2FF"/>
<path d="M20.233 27.6684L20.4902 27.8702L24.5521 24.7258V24.3434V24.3367L20.233 27.6684Z" fill="#FDFDFF"/>
<path d="M28.438 21.3391V21.7176L29.6579 20.7733L29.4231 20.5792L28.438 21.3391Z" fill="#FDFDFF"/>
</mask>
<g mask="url(#mask0_33_123)">
<rect width="49.2618" height="48" fill="#D9D9D9"/>
</g>
</g>
<defs>
<clipPath id="clip0_33_123">
<rect width="319" height="48" fill="white"/>
</clipPath>
</defs>
</svg>

<svg xmlns="http://www.w3.org/2000/svg" width="319" height="48" fill="none" viewBox="0 0 319 48"><g clip-path="url(#a)"><path fill="#d9d9d9" d="M256.33 36.247c1.696-5.435 3.427-10.835 4.982-16.306.494-1.73 1.342-2.435 3.108-2.223 1.237.14 2.473.07 3.71 0 1.271 0 1.519.458 1.095 1.623-1.519 4.13-3.003 8.259-4.522 12.424-1.413 3.847-2.862 7.694-4.204 11.576-.389 1.165-1.024 1.588-2.19 1.518a50 50 0 0 0-4.593 0c-1.271.07-1.907-.459-2.261-1.659-1.519-4.765-3.073-9.494-4.627-14.224-.106-.317-.248-.635-.46-1.094-.671.46-.706 1.13-.918 1.694-1.484 4.518-3.003 9.036-4.381 13.589-.388 1.306-1.059 1.8-2.402 1.73-1.06-.072-2.119 0-3.179 0q-2.897 0-3.886-2.648c-2.756-7.482-5.511-15-8.267-22.482-.706-1.977-.706-2.012 1.307-1.977 1.943.035 4.169-.706 5.723.318 1.555 1.059 1.449 3.459 2.049 5.294 1.413 4.27 2.72 8.612 4.098 13.023.742-.494.707-1.2.883-1.764 1.519-4.977 3.074-9.988 4.522-15 .424-1.447 1.131-1.906 2.614-1.906 5.653 0 5.617 0 7.278 5.33 1.377 4.411 2.755 8.823 4.098 13.235h.423zm-110.395 9c-4.522-.106-7.949-.882-11.128-2.788-1.06-.636-1.413-1.341-.742-2.436s.706-2.753 1.837-3.317c1.166-.565 2.119.917 3.25 1.341 2.049.777 4.098 1.447 6.323 1.482.778 0 1.519-.106 2.191-.529 1.342-.847 1.413-2.012.176-3-.883-.706-1.943-1.059-3.038-1.412-1.978-.6-3.956-1.13-5.829-2.047-2.755-1.376-4.345-3.565-4.31-6.706 0-3.07 1.378-5.435 4.098-6.882 4.239-2.259 8.691-2.012 13.001-.494 5.616 1.976 4.239 1.623 2.366 5.823-.529 1.2-1.095 1.412-2.296.812-2.261-1.165-4.663-1.941-7.277-1.8-1.131.07-2.19.318-2.438 1.553-.282 1.341.742 1.87 1.767 2.259 1.483.53 3.002.988 4.521 1.517 1.06.353 2.12.706 3.109 1.2 3.568 1.73 4.981 4.095 4.628 7.906-.318 3.53-2.579 5.577-5.723 6.671-1.731.6-3.533.953-4.522.847zm164.657-23.541c1.908-2.294 4.098-3.847 7.03-4.094.989-.07 1.449.176 1.413 1.165v1.411c-.035 1.341.283 2.86-.247 3.989-.565 1.2-2.332.635-3.533.988-3.073.847-5.051 3.212-5.087 6.388-.035 3.741-.106 7.518 0 11.259.036 1.659-.565 2.223-2.155 2.082-1.095-.106-2.225 0-3.356 0-2.437 0-2.543-.106-2.543-2.612V19.906c0-1.518.53-2.365 2.19-2.153.353.035.707 0 1.06 0 1.342 0 2.826-.282 4.027.176 1.625.6.212 2.471 1.166 3.812zM128.625 36.247V9.494c0-1.518-.46-2.153-2.014-2.012-1.237.106-2.473 0-3.709 0-2.332 0-2.332 0-2.332 2.365V20.86c-.6.141-.812-.283-1.095-.53-4.169-4.447-13.495-3.564-17.275 1.66-3.073 4.27-3.603 8.964-2.296 13.905 2.402 8.93 12.329 12.247 19.536 6.635.847-.67 1.13-.494 1.095.494-.071 1.624.848 1.977 2.261 1.906 1.342-.07 2.72-.07 4.062 0 1.307.071 1.802-.458 1.767-1.764-.071-2.294 0-4.588 0-6.883zm-16.392 2.612c-4.063-.035-6.606-2.93-6.571-7.483 0-4.411 2.756-7.34 6.783-7.34 3.886 0 6.712 3.176 6.677 7.482s-2.897 7.34-6.854 7.306zm-13.848 3.423c-3.85-8.964-7.666-17.929-11.552-26.858-.812-1.871-1.095-4.377-2.65-5.436-1.66-1.164-4.133-.212-6.217-.388-1.378-.106-2.084.388-2.65 1.694-3.038 7.2-6.182 14.33-9.326 21.494-1.519 3.494-3.073 6.989-4.557 10.518-.247.565-.918 1.482.389 1.518 2.331.07 4.875.67 6.96-.283 1.448-.635 1.448-2.964 2.19-4.447.035-.106.105-.212.105-.318.318-1.305 1.201-1.658 2.508-1.658 3.78.07 7.525 0 11.305 0 3.603 0 3.003-.318 4.31 2.858 1.943 4.589.742 3.777 5.723 3.883h1.766q2.756 0 1.625-2.577zm-14.413-10.8h-8.09c-.883 0-1.201-.388-.848-1.2 1.59-3.847 3.144-7.658 4.734-11.506h.494c1.555 3.848 3.074 7.695 4.628 11.542.353.882-.106 1.2-.918 1.2zm96.053-21.529c-5.44-.741-10.916-.141-16.392-.353-1.766-.07-2.19.6-2.155 2.259.071 5.118 0 10.2 0 15.318v15.846c0 1.306.354 1.977 1.802 1.906q2.385-.105 4.769 0c1.131 0 1.59-.458 1.554-1.588-.035-2.188.036-4.341 0-6.53-.035-1.376.46-1.87 1.837-1.834 2.756.07 5.511 0 8.267-.283 6.712-.741 11.057-5.47 11.022-12.565-.036-6.423-3.003-11.047-10.739-12.14zm3.003 13.059c-.248 2.894-2.332 4.8-5.405 4.941-2.155.07-4.346 0-6.501.035-1.024 0-1.519-.423-1.483-1.482v-8.753c0-.776.176-1.447 1.13-1.412 2.614.07 5.299-.317 7.878.283 3.144.74 4.699 3.035 4.381 6.388m39.071 5.188c-1.06-6.565-6.889-10.73-14.378-10.659-.601.035-1.166.106-1.766.141-5.193.424-9.327 2.683-11.446 7.553-2.155 5.012-1.908 10.024 1.342 14.542 2.968 4.094 7.313 5.435 12.223 5.435 8.62 0 15.791-5.894 13.99-17.012zm-14.237 10.659c-3.956 0-6.818-3.177-6.747-7.483.07-4.235 2.897-7.376 6.712-7.305 4.027.035 6.677 3.035 6.677 7.482 0 4.341-2.721 7.341-6.642 7.306m76.412-21.282c-6.288-.036-11.128 2.717-13.318 7.976-2.403 5.718-1.06 12.318 3.25 16.376 4.239 3.953 12.788 4.447 18.37 1.095 3.356-2.012 3.391-2.294.671-5.083-.036-.035-.106-.07-.106-.141-.919-1.2-1.802-1.588-3.144-.388-1.237 1.094-2.932 1.482-4.557 1.694-2.685.318-5.653-1.2-6.854-3.459-.742-1.376-.53-1.8 1.025-1.8 2.579-.035 5.157 0 7.772 0h7.948c1.06 0 1.802-.282 1.872-1.553.389-7.941-3.532-14.647-12.929-14.717m3.709 11.435h-9.008c-.601 0-1.201 0-1.095-.953.282-2.082 2.861-4.412 5.193-4.659 3.073-.318 5.546 1.094 6.358 3.6.53 1.624.248 2.012-1.448 2.047z"/><mask id="b" width="50" height="50" x="0" y="0" maskUnits="userSpaceOnUse" style="mask-type:luminance"><path fill="#1e4dfe" d="M5.688 49.165C2.578 48.495.707 46.588 0 43.482c0-6.14.07-12.317.07-18.458C.07 18.563.036 12.14 0 5.682.671 2.576 2.579.706 5.688 0c6.04 0 12.081.07 18.122.07h20.066c3.674 1.13 5.44 3.46 5.44 7.2v34.624c0 3.741-1.802 6.07-5.44 7.2-12.753 0-25.47.035-38.224.07z"/><path fill="#a5b8ff" d="M38.683 41.118V28.235l-5.249-4.34-4.996 3.92v5.009z"/><path fill="#d2dbff" d="M11.481 7.765v13.574l4.481 2.977 8.578-6.502z"/><path fill="#a5b8ff" fill-rule="evenodd" d="M11.481 34.412v-7.06l4.481-3.036 4.271 3.352zm0 .353v6.353L24.428 30.96l-3.938-3.09z" clip-rule="evenodd"/><path fill="#fdfdff" fill-rule="evenodd" d="m20.233 27.668-4.27-3.352 8.577-6.502.012.01v6.513zm.257.202 3.938 3.091.124-.098v-6.137z" clip-rule="evenodd"/><path fill="#e5ebff" fill-rule="evenodd" d="M28.438 21.34v-1.575l.985.814zm0 .378v6.097l4.996-3.92-3.776-3.122z" clip-rule="evenodd"/><path fill="#a5b8ff" fill-rule="evenodd" d="M38.683 19.588v-6l-9.025 7.185 3.776 3.122zm-9.26.991-.985-.814v1.574l-3.886 2.998v-6.514l-.012-.009L38.683 6.882v6.353zm-4.87 10.284v-6.137l3.885-3.008v6.097z" clip-rule="evenodd"/><path fill="#c7d2ff" d="M11.481 34.412v.353l9.01-6.895-.258-.202zm13.071-10.069v.383l3.886-3.008v-.379l-3.886 2.998zm14.131-10.755v-.353l-9.26 7.344.235.194z"/><path fill="#fdfdff" d="m20.233 27.668.257.202 4.062-3.144v-.389zm8.205-6.328v.378l1.22-.945-.235-.194z"/></mask><g mask="url(#b)"><path fill="#d9d9d9" d="M0 0h49.262v48H0z"/></g></g><defs><clipPath id="a"><path fill="#fff" d="M0 0h319v48H0z"/></clipPath></defs></svg>
